!!!SOCIAL_FUNCTION:	social songs
!!!PDT:	1943
!!!OTL: No_53_Song_After_Receiving_a_Gift_(a).krn
!!!REG: British Columbia
**kern	**kern
*staff2	*staff1
=1-	=1-
*clefF4	*clefF4
*k[f#c#g#d#]	*k[f#c#g#d#]
*M2/4	*M2/4
4GG#/	8.r
.	16f#\
4GG#/	4f#\
=2!|:	=2!|:
4GG#/	4e\
4GG#/	4B\
=3	=3
4GG#/	4..e\
4GG#/	.
.	16f#\
=4||	=4||
*M3/4	*M3/4
2.r	4e\
.	8B\
.	16r
.	16c#\
.	4c#\
=5||	=5||
*M3/8	*M3/8
4.r	8B\L
.	8G#\
.	8F#\J
=6||	=6||
*M2/4	*M2/4
2r	4..B\
.	16c#\
=7||	=7||
*M3/4	*M3/4
2.r	4B\
.	8F#\
.	16r
.	16A\
.	4A\
=8||	=8||
*M5/8	*M5/8
3...r	8.F#\L
.	16E\K
.	8E\J
.	4E\
=9||	=9||
*M3/4	*M3/4
2.r	4E\
.	8E\
.	16r
.	16B\
.	4B\
=10||	=10||
*M3/8	*M3/8
4.r	8B\L
.	8G#\
.	8F#\J
=11||	=11||
*M2/4	*M2/4
2r	4..B\
.	16c#\
=12||	=12||
*M3/4	*M3/4
2.r	4B\
.	8F#\
.	16r
.	16A\
.	4A\
=13||	=13||
*M5/8	*M5/8
3...r	8.F#\L
.	16E\K
.	8E\J
.	4E\
=14||	=14||
*M3/4	*M3/4
2.r	4E\
.	16E\
.	8.r
.	4F#\
=15||	=15||
*M3/8	*M3/8
4.r	4E\
.	8F#\
=16||	=16||
*M2/4	*M2/4
2r	4E\
.	8E\
.	8r
=17	=17
2r	8E\L
.	8E\J
.	4E\
=18||	=18||
*M3/4	*M3/4
2.r	4F#\
.	8F#\
.	16r
.	16f#\
.	4f#\
==:|!	==:|!
*-	*-
